assets/images/coins.svg

<svg xmlns="http://www.w3.org/2000/svg" width="20" height="20" viewBox="0 0 20 20"><path d="M19 3.5C19 4.60457 16.7614 5.5 14 5.5C11.2386 5.5 9 4.60457 9 3.5C9 2.39543 11.2386 1.5 14 1.5C16.7614 1.5 19 2.39543 19 3.5Z"/><path d="M14 7.49997C15.57 7.49997 17.0835 7.24907 18.2783 6.77114C18.5184 6.6751 18.762 6.5634 19 6.43311V7.49994C19 8.60451 16.7614 9.49994 14 9.49994C13.6477 9.49994 13.304 9.48537 12.9723 9.45765C12.9699 8.78394 12.9685 8.27559 12.9685 8.07543C12.9685 7.84265 12.9331 7.63823 12.8732 7.45618C13.243 7.48526 13.6198 7.49997 14 7.49997Z"/><path d="M12.9797 11.4641L12.9875 13.4589C13.3145 13.4858 13.6531 13.4999 14 13.4999C16.7614 13.4999 19 12.6045 19 11.4999V10.4331C18.762 10.5634 18.5184 10.6751 18.2783 10.7711C17.0835 11.2491 15.57 11.5 14 11.5C13.6563 11.5 13.3152 11.4879 12.9797 11.4641Z"/><path d="M11 8.5C11 9.60457 8.76142 10.5 6 10.5C3.23858 10.5 1 9.60457 1 8.5C1 7.39543 3.23858 6.5 6 6.5C8.76142 6.5 11 7.39543 11 8.5Z"/><path d="M5.99999 12.5C7.57 12.5 9.08348 12.2491 10.2783 11.7711C10.5184 11.6751 10.762 11.5634 11 11.4331V12.4999C11 13.6045 8.76143 14.4999 6.00001 14.4999C3.23858 14.4999 1.00001 13.6045 1.00001 12.4999L1 11.4331C1.23799 11.5634 1.48158 11.6751 1.72167 11.7711C2.91649 12.2491 4.42997 12.5 5.99999 12.5Z"/><path d="M5.99999 16.5C7.57 16.5 9.08348 16.2491 10.2783 15.7711C10.5184 15.6751 10.762 15.5634 11 15.4331V16.4999C11 17.6045 8.76143 18.4999 6.00001 18.4999C3.23858 18.4999 1.00001 17.6045 1.00001 16.4999L1 15.4331C1.23799 15.5634 1.48158 15.6751 1.72167 15.7711C2.91649 16.2491 4.42997 16.5 5.99999 16.5Z"/></svg>

<svg xmlns="http://www.w3.org/2000/svg" width="20" height="20" viewBox="0 0 20 20"><path d="M19 3.5c0 1.105-2.239 2-5 2s-5-.895-5-2 2.239-2 5-2 5 .895 5 2m-5 4c1.57 0 3.084-.25 4.278-.729A7 7 0 0 0 19 6.433V7.5c0 1.105-2.239 2-5 2q-.529 0-1.028-.042l-.003-1.383c0-.232-.036-.437-.096-.619Q13.43 7.5 14 7.5m-1.02 3.964.008 1.995q.491.04 1.012.04c2.761 0 5-.895 5-2v-1.066a7 7 0 0 1-.722.338c-1.194.478-2.708.729-4.278.729q-.517 0-1.02-.036M11 8.5c0 1.105-2.239 2-5 2s-5-.895-5-2 2.239-2 5-2 5 .895 5 2m-5 4c1.57 0 3.083-.25 4.278-.729a7 7 0 0 0 .722-.338V12.5c0 1.104-2.239 2-5 2s-5-.896-5-2v-1.067a7 7 0 0 0 .722.338C2.916 12.25 4.43 12.5 6 12.5m0 4c1.57 0 3.083-.25 4.278-.729a7 7 0 0 0 .722-.338V16.5c0 1.105-2.239 2-5 2s-5-.895-5-2v-1.067a7 7 0 0 0 .722.338C2.916 16.25 4.43 16.5 6 16.5"/></svg>
